X: 19563
T: James Kelly's
R: slip jig
M: 9/8
K: Dmajor
|:F2A2 A2B2 A4|F2A2 A2D2 Bcd2|F2A2 A2B2 A4|e2f2 e2d2 B2A2:|
|:f2a2 a2f2 d4|e2f2 e2d2 B2A2|f2d2 e2c2 d4|B2=c2 B2A2 FED2:|

